!!!OTL: Hongling Qian dao ousi gen
!!!ARE: Asia, China,ˇnan Jiangsu, Danyang
!! III, 487
!!!SCT: C1583
!!!YEM: Copyright 1995, estate of Helmut Schaffrath.
**kern
*ICvox
*Ivox
*M4/4
*k[f#]
*G:
{8dd
8ee
8dd
16ee
[16ee
4ee]
8dd
8ee
=1
1aa}
=2
{12gg
12aa
12bb
8.aa
16gg
4ee
4aa
=3
8bb
8aa
8aa
16gg
16ee
4dd
4r}
=4
{8dd
8ee
8dd
8ee
8dd
8ee
8dd
8ee
=5
8dd
8ee
8dd
8ee
8dd
8ee
8dd
8ee}
=6
{8dd
8ee
8dd
8ee
4.gg
16aa
16bb
=7
4.ddd
16ee
16dd
4.b
16b
16a
=8
16gg
16aa
16bb
16ddd
2aa
4ee
=9
8aa
4.gg
16ee
16dd
4.dd}
==
!!!AGN: Shange, MengjiangnÅ diao. NannÅ qing
!!!AMT: simple quadruple
!!!AIN: vox
!!!EED: Helmut Schaffrath
!!!EEV: 1.0
*-
